!! 00000] TT[WS
!!!OTL: Pao xiuqiu
!!!ARE: Asia, China, Shanxi Linxian
!! Ethnic Group: Han
!! WI, 259 (1)
!!!SCT: J0305
!!!YEM: Copyright 1995, estate of Helmut Schaffrath.
**kern
*ICvox
*Ivox
*M3/8
*k[f#]
*G:
{8dd
8dd
8gg
=1
8gg
8b
8dd
=2
8ee
8dd
8b
=3
8a
8a
8d}
=4
{8dd
8dd
8gg
=5
8gg
8b
8dd
=6
8ee
8dd
8b
=7
4.a}
=8
{8a
8dd
8dd
=9
8gg
8ee
8dd
=10
8dd
8b
8a
=11
8g
8g
8e}
=12
{8b
8a
8a
=13
8d
8g
8b
=14
8a
8a
8e
=15
4.d}
==
!!!AGN: Xiaodiao. Qingge, Sichun
!!!ONB: ESAC (Essen Associative Code) Database: CHINA
!!!AMT: simple triple
!!!AIN: vox
!!!EED: Helmut Schaffrath
!!!EEV: 1.0
*-
